X: 21575
T: Kilkenny
R: jig
M: 6/8
K: Adorian
Kilkenny:|cBA dcB|AEF GAB|cBA dcB|ABA A2B|
YTE:|czA BdB|AGE GAB|czA Bed|BAG A2B|
Kilkenny:|g3 agf|g2e edB|a2e a2e|a2e edB|
YTE:|gge age|dBA GBd|gze age|deg a3|

